X: 83
T:Jenny Pluck Pears
M:6/8
L:1/8
Q:160
S:Playford
K:C
A2 2 B>cd| c>BA G2 E| A2 A B>cd |c>BA G2 E|e2 e d2 B| c>BA G2 E2 ^F>GA G>FG| A3 A3:|
M:3/4
|: A2 e2 d2| c4 B2| A2 e2 d2 | c4 B2| A2 e2 d2 |c3 B A2| G3 ^F G2| A6:|

